X: 1
T:Christy Barry's
R:Jig
S:Kevin Crawford, D Flute Album
M:6/8
L:1/8
K:G
~G3 BAG|A2B d2e|ged BGG|~A3 BGE|!
DGG BAG|A2B d2e|ged BGG|1 AGF G2D:|2 AGF GBd !
|:~g3 gfg|abg d2e|ged BGG|~A3 BGE|!
DGG BAG|A2B d2e|ged BGG|1 AGF GBd:|2 AGF G2D||!
